X:88
T: Xi de yangmiao xiao kai yan
N: C1581
O: China, Jiangsu, Yancheng
S: III, 478]
R: Haozi, Cheshui haozi, Langtou diao]
M: 2/4
L: 1/16
K: D
A4A2F2 | E2D2E4
A4A2F2 | E2D2E4
A2FAB4- | B6d2 | B2A2F4
B2BAF2A2 | F2A2F4 | A2A2A2D2 | E4E4
A4A2F2 | E2D2E4
A2FAB4- | B2d2B2A2 | F3ED2D2 | E8
A4A2F2 | E8- | E8

